app/img/efficiency.svg

<svg width="64" height="64" viewBox="0 0 64 64" fill="none" xmlns="http://www.w3.org/2000/svg">
<g clip-path="url(#clip0)">
<path d="M58.9448 49.2437H57.4863C57.0834 49.811 58.2221 48.2324 58.4584 47.7876C61.5639 42.8428 63.246 37.0659 63.246 31.1855C63.246 22.8555 60.0024 15.0244 54.1122 9.13379C48.2221 3.24365 40.3911 0 32.061 0C25.2382 0 18.7583 2.16309 13.3227 6.25537C12.9111 6.56494 12.8286 7.14893 13.1381 7.56055C13.4482 7.97168 14.0322 8.0542 14.4438 7.74463C19.3056 4.08447 25.0566 2.06738 31.1289 1.87988V29.4702L7.80172 14.7046C8.83395 13.1919 10.0141 11.7642 11.3383 10.4414C11.7026 10.0776 11.7026 9.4873 11.3388 9.12305C10.9751 8.75928 10.3852 8.7583 10.021 9.12256C4.7944 14.3433 1.65133 21.0918 1.0029 28.3613C0.848111 30.0698 0.833463 31.7935 0.960904 33.5044C1.40329 39.5986 3.58883 45.3345 7.35153 50.2139C11.3418 55.3882 16.9428 59.2324 23.1699 61.084V61.981C23.1699 63.0942 24.0756 64 25.1889 64H34.9916C35.3916 64 35.7641 63.8813 36.0786 63.6797C36.3925 63.8813 36.7651 64 37.1655 64H46.9677C47.3681 64 47.7407 63.8813 48.0551 63.6797C48.3691 63.8813 48.7416 64 49.142 64H58.9448C60.058 64 60.9633 63.0942 60.9633 61.981V51.2622C60.9638 50.1489 60.058 49.2437 58.9448 49.2437ZM29.0449 49.2437H25.0336V46.9648C25.0336 46.8794 25.1035 46.8101 25.1889 46.8101H34.9916C35.0771 46.8101 35.1464 46.8794 35.1464 46.9648V49.2437H33.0219C32.5073 49.2437 32.0898 49.6606 32.0898 50.1753C32.0898 50.6904 32.5073 51.1074 33.0219 51.1074H35.1464V53.541H25.0336V51.1074H29.0449C29.56 51.1074 29.977 50.6904 29.977 50.1753C29.977 49.6606 29.56 49.2437 29.0449 49.2437ZM37.0102 46.9648V46.8101H47.123V49.2432H37.0102V46.9648ZM47.123 44.9458H37.0102V42.5127H47.123V44.9458ZM37.0102 51.1074H47.123V53.541H37.0102V51.1074ZM47.123 40.6484H37.0102V38.3701C37.0102 38.2842 37.08 38.2148 37.1655 38.2148H46.9677C47.0532 38.2148 47.123 38.2842 47.123 38.3701V40.6484ZM25.0336 55.4048H35.1464V57.8384H25.0336V55.4048ZM37.0102 55.4048H47.123V57.8384H37.0102V55.4048ZM48.9873 55.4048H59.0996V57.8384H48.9873V55.4048ZM59.0996 51.2622V53.541H48.9873V51.2622C48.9873 51.1768 49.0566 51.1074 49.142 51.1074H58.9448C59.0302 51.1074 59.0996 51.1768 59.0996 51.2622ZM49.142 49.2437C49.0898 49.2437 49.0385 49.2476 48.9873 49.2515V42.9795L56.3364 47.6313C55.9643 48.1812 55.5717 48.7188 55.1616 49.2437H49.142ZM2.79782 33.0322C2.77829 32.7271 2.76559 32.4229 2.75583 32.1177H23.2758L3.21872 36.4468C3.01315 35.3262 2.87106 34.1865 2.79782 33.0322ZM3.61276 38.2686L27.4384 33.126L7.14547 46.6123C5.55758 44.0503 4.35641 41.2388 3.61276 38.2686ZM6.80612 16.2808L28.8813 30.2534H2.75583C2.77243 29.707 2.80465 29.1611 2.85202 28.6162C3.23239 24.2568 4.57809 20.0488 6.80612 16.2808ZM8.17721 48.165L32.081 32.2788L35.7758 34.6172C35.9306 34.7153 36.103 34.7617 36.2734 34.7617C36.5825 34.7617 36.8842 34.6084 37.062 34.3281C37.3374 33.8931 37.208 33.3174 36.7729 33.0425L32.9931 30.6499V1.88037C48.7309 2.37451 61.3823 15.3296 61.3823 31.1855C61.3823 36.4238 59.9633 41.5742 57.3315 46.0552L48.9873 40.7734V38.3701C48.9873 37.2563 48.0815 36.3511 46.9682 36.3511H37.1655C36.0522 36.3511 35.1464 37.2568 35.1464 38.3701V44.9536C35.0952 44.9497 35.0439 44.9458 34.9916 44.9458H25.1889C24.0756 44.9458 23.1699 45.8516 23.1699 46.9648V59.1333C16.9887 57.1694 11.7856 53.2427 8.17721 48.165ZM34.9916 62.1357H25.1889C25.1035 62.1357 25.0336 62.0664 25.0336 61.981V59.7026H35.1464V61.981C35.1464 62.0664 35.0766 62.1357 34.9916 62.1357ZM46.9677 62.1357H37.1655C37.08 62.1357 37.0102 62.0664 37.0102 61.981V59.7026H47.123V61.981C47.123 62.0664 47.0537 62.1357 46.9677 62.1357ZM59.0996 61.981C59.0996 62.0664 59.0302 62.1362 58.9448 62.1362H49.142C49.0566 62.1362 48.9873 62.0664 48.9873 61.981V59.7026H59.0996V61.981Z" fill="#FF9458"/>
</g>
<defs>
<clipPath id="clip0">
<rect width="64" height="64" fill="white"/>
</clipPath>
</defs>
</svg>

<svg width="64" height="64" fill="none" xmlns="http://www.w3.org/2000/svg"><g clip-path="url(#clip0)"><path d="M58.945 49.244h-1.459c-.403.567.736-1.012.972-1.456a31.293 31.293 0 004.788-16.602c0-8.33-3.244-16.162-9.134-22.052C48.222 3.244 40.392 0 32.061 0c-6.823 0-13.303 2.163-18.738 6.255a.932.932 0 101.12 1.49A29.04 29.04 0 0131.13 1.88v27.59L7.802 14.705a29.627 29.627 0 013.536-4.264.932.932 0 00-1.317-1.318c-5.227 5.22-8.37 11.969-9.018 19.238a31.295 31.295 0 00-.042 5.143c.442 6.095 2.628 11.83 6.39 16.71 3.99 5.174 9.592 9.018 15.819 10.87v.897c0 1.113.906 2.019 2.019 2.019h9.803c.4 0 .772-.119 1.087-.32.313.201.686.32 1.087.32h9.802c.4 0 .773-.119 1.087-.32.314.201.687.32 1.087.32h9.803a2.021 2.021 0 002.018-2.019V51.262a2.02 2.02 0 00-2.018-2.018zm-29.9 0h-4.011v-2.28c0-.085.07-.154.155-.154h9.803c.085 0 .154.07.154.155v2.279h-2.124a.932.932 0 100 1.863h2.124v2.434H25.034v-2.434h4.01a.932.932 0 100-1.863zm7.965-2.28v-.154h10.113v2.433H37.01v-2.278zm10.113-2.018H37.01v-2.433h10.113v2.433zM37.01 51.107h10.113v2.434H37.01v-2.434zm10.113-10.459H37.01V38.37c0-.086.07-.155.156-.155h9.802c.085 0 .155.07.155.155v2.278zm-22.09 14.757h10.113v2.433H25.034v-2.433zm11.977 0h10.113v2.433H37.01v-2.433zm11.977 0H59.1v2.433H48.987v-2.433zM59.1 51.262v2.279H48.987v-2.279c0-.085.07-.155.155-.155h9.803c.085 0 .155.07.155.155zm-9.958-2.018c-.052 0-.104.004-.155.008v-6.273l7.35 4.652c-.373.55-.765 1.088-1.175 1.613h-6.02zM2.798 33.032c-.02-.305-.032-.61-.042-.914h20.52L3.219 36.447a29.152 29.152 0 01-.421-3.415zm.815 5.237l23.825-5.143L7.145 46.612a29.394 29.394 0 01-3.532-8.343zM6.806 16.28l22.075 13.972H2.756a29.195 29.195 0 014.05-13.973zm1.371 31.884l23.904-15.886 3.695 2.338a.932.932 0 10.997-1.575l-3.78-2.392V1.88c15.738.495 28.39 13.45 28.39 29.306a29.426 29.426 0 01-4.052 14.87l-8.344-5.283V38.37a2.021 2.021 0 00-2.019-2.019h-9.803a2.022 2.022 0 00-2.019 2.02v6.583a2.028 2.028 0 00-.154-.008h-9.803a2.021 2.021 0 00-2.02 2.019v12.168c-6.18-1.964-11.383-5.89-14.992-10.968zm26.815 13.97h-9.803a.155.155 0 01-.155-.154v-2.278h10.112v2.278c0 .085-.07.155-.154.155zm11.976 0h-9.803a.155.155 0 01-.155-.154v-2.278h10.113v2.278c0 .085-.07.155-.155.155zM59.1 61.98c0 .085-.07.155-.155.155h-9.803a.155.155 0 01-.155-.155v-2.278H59.1v2.278z" fill="#FF9458"/></g><defs><clipPath id="clip0"><path fill="#fff" d="M0 0h64v64H0z"/></clipPath></defs></svg>
